dist/img/contact.svg

<svg width="15" height="11" viewBox="0 0 15 11" fill="none" xmlns="http://www.w3.org/2000/svg">
<path d="M13.5937 0H1.40626C0.6308 0 0 0.616782 0 1.37501V9.62499C0 10.3832 0.6308 11 1.40626 11H13.5937C14.3692 11 15 10.3832 15 9.62499V1.37501C15 0.616782 14.3692 0 13.5937 0ZM13.5937 0.916662C13.6574 0.916662 13.718 0.929581 13.7734 0.952145L7.5 6.26851L1.22656 0.952145C1.28195 0.929612 1.34254 0.916662 1.40623 0.916662H13.5937ZM13.5937 10.0833H1.40626C1.14763 10.0833 0.937496 9.87788 0.937496 9.62496V1.92061L7.19283 7.22142C7.2812 7.29616 7.3906 7.33332 7.5 7.33332C7.6094 7.33332 7.7188 7.29619 7.80717 7.22142L14.0625 1.92061V9.62499C14.0625 9.87788 13.8524 10.0833 13.5937 10.0833Z" fill="white"/>
</svg>

<svg fill="none" xmlns="http://www.w3.org/2000/svg" viewBox="0 0 15 11"><path d="M13.594 0H1.406C.631 0 0 .617 0 1.375v8.25C0 10.383.63 11 1.406 11h12.188C14.369 11 15 10.383 15 9.625v-8.25C15 .617 14.37 0 13.594 0zm0 .917c.063 0 .124.013.18.035L7.5 6.27 1.227.952a.476.476 0 01.18-.035h12.187zm0 9.166H1.406a.464.464 0 01-.469-.458V1.921l6.256 5.3a.475.475 0 00.614 0l6.255-5.3v7.704c0 .253-.21.458-.468.458z" fill="#fff"/></svg>
